utils/icons-generator/ic_input_publisher.svg

<?xml version="1.0" encoding="UTF-8"?>
<svg xmlns="http://www.w3.org/2000/svg" xmlns:xlink="http://www.w3.org/1999/xlink" width="1000pt" height="1000pt" viewBox="0 0 1000 1000" version="1.1">
<g id="surface1">
<path style=" stroke:none;fill-rule:evenodd;fill:rgb(0%,0%,0%);fill-opacity:1;" d="M 979.167969 833.332031 C 979.167969 890.875 932.542969 937.5 875 937.5 L 125 937.5 C 67.457031 937.5 20.832031 890.875 20.832031 833.332031 L 20.832031 229.167969 C 20.832031 183.144531 58.144531 145.832031 104.167969 145.832031 L 524.394531 145.832031 L 693.125 84.707031 C 703.8125 80.8125 715.644531 86.332031 719.542969 96.980469 L 737.3125 145.832031 L 812.5 145.832031 C 858.519531 145.832031 895.832031 183.144531 895.832031 229.167969 L 895.832031 270.832031 C 941.855469 270.832031 979.167969 308.144531 979.167969 354.167969 Z M 104.167969 187.5 C 81.167969 187.5 62.5 206.167969 62.5 229.167969 C 62.5 252.167969 81.167969 270.832031 104.167969 270.832031 L 179.875 270.832031 C 180.144531 270.730469 180.3125 270.5 180.582031 270.394531 L 409.375 187.5 Z M 709.957031 191.269531 L 687.832031 130.355469 L 687.8125 130.355469 L 645.082031 145.832031 L 645.144531 145.832031 L 530.269531 187.5 L 530.0625 187.5 L 300.082031 270.832031 L 738.875 270.832031 Z M 854.167969 229.167969 C 854.167969 206.167969 835.5 187.5 812.5 187.5 L 752.4375 187.5 L 782.730469 270.832031 L 854.167969 270.832031 Z M 895.832031 312.5 L 104.167969 312.5 C 88.917969 312.5 74.792969 308.105469 62.5 300.9375 L 62.5 833.332031 C 62.5 867.855469 90.5 895.832031 125 895.832031 L 875 895.832031 C 909.519531 895.832031 937.5 867.855469 937.5 833.332031 L 937.5 687.5 L 854.167969 687.5 C 808.144531 687.5 770.832031 650.1875 770.832031 604.167969 C 770.832031 558.144531 808.144531 520.832031 854.167969 520.832031 L 937.5 520.832031 L 937.5 354.167969 C 937.5 331.167969 918.832031 312.5 895.832031 312.5 Z M 937.5 645.832031 L 937.5 562.5 L 854.167969 562.5 C 831.167969 562.5 812.5 581.167969 812.5 604.167969 C 812.5 627.167969 831.167969 645.832031 854.167969 645.832031 Z M 854.167969 583.332031 L 895.832031 583.332031 L 895.832031 625 L 854.167969 625 Z M 854.167969 583.332031 "/>
</g>
</svg>

<?xml version="1.0" encoding="UTF-8" standalone="no"?>
<svg
   xmlns:dc="http://purl.org/dc/elements/1.1/"
   xmlns:cc="http://creativecommons.org/ns#"
   xmlns:rdf="http://www.w3.org/1999/02/22-rdf-syntax-ns#"
   xmlns:svg="http://www.w3.org/2000/svg"
   xmlns="http://www.w3.org/2000/svg"
   xmlns:sodipodi="http://sodipodi.sourceforge.net/DTD/sodipodi-0.dtd"
   xmlns:inkscape="http://www.inkscape.org/namespaces/inkscape"
   width="1000pt"
   height="1000pt"
   viewBox="0 0 1000 1000"
   version="1.1"
   id="svg456"
   sodipodi:docname="ic_input_publisher.svg"
   inkscape:version="0.92.4 (5da689c313, 2019-01-14)">
  <metadata
     id="metadata462">
    <rdf:RDF>
      <cc:Work
         rdf:about="">
        <dc:format>image/svg+xml</dc:format>
        <dc:type
           rdf:resource="http://purl.org/dc/dcmitype/StillImage" />
      </cc:Work>
    </rdf:RDF>
  </metadata>
  <defs
     id="defs460" />
  <sodipodi:namedview
     pagecolor="#ffffff"
     bordercolor="#666666"
     borderopacity="1"
     objecttolerance="10"
     gridtolerance="10"
     guidetolerance="10"
     inkscape:pageopacity="0"
     inkscape:pageshadow="2"
     inkscape:window-width="2560"
     inkscape:window-height="1346"
     id="namedview458"
     showgrid="false"
     inkscape:zoom="0.177"
     inkscape:cx="666.66667"
     inkscape:cy="666.66667"
     inkscape:window-x="-11"
     inkscape:window-y="-11"
     inkscape:window-maximized="1"
     inkscape:current-layer="svg456" />
  <g
     id="surface1"
     transform="matrix(1.0408667,0,0,1.0408667,-20.433366,-31.340498)">
    <path
       style="fill:#000000;fill-opacity:1;fill-rule:evenodd;stroke:none"
       d="M 979.16797,833.33203 C 979.16797,890.875 932.54297,937.5 875,937.5 H 125 C 67.457031,937.5 20.832031,890.875 20.832031,833.33203 V 229.16797 c 0,-46.02344 37.3125,-83.33594 83.335939,-83.33594 H 524.39453 L 693.125,84.707031 c 10.6875,-3.894531 22.51953,1.625 26.41797,12.273438 L 737.3125,145.83203 H 812.5 c 46.01953,0 83.33203,37.3125 83.33203,83.33594 v 41.66406 c 46.02344,0 83.33594,37.3125 83.33594,83.33594 z M 104.16797,187.5 C 81.167969,187.5 62.5,206.16797 62.5,229.16797 c 0,23 18.667969,41.66406 41.66797,41.66406 H 179.875 c 0.26953,-0.10156 0.4375,-0.33203 0.70703,-0.4375 L 409.375,187.5 Z m 605.78906,3.76953 -22.125,-60.91406 h -0.0195 l -42.73047,15.47656 h 0.0625 L 530.26953,187.5 H 530.0625 L 300.08203,270.83203 H 738.875 Z m 144.21094,37.89844 C 854.16797,206.16797 835.5,187.5 812.5,187.5 h -60.0625 l 30.29297,83.33203 h 71.4375 z M 895.83203,312.5 H 104.16797 C 88.917969,312.5 74.792969,308.10547 62.5,300.9375 v 532.39453 c 0,34.52344 28,62.5 62.5,62.5 h 750 c 34.51953,0 62.5,-27.97656 62.5,-62.5 V 687.5 h -83.33203 c -46.02344,0 -83.33594,-37.3125 -83.33594,-83.33203 0,-46.02344 37.3125,-83.33594 83.33594,-83.33594 H 937.5 V 354.16797 c 0,-23 -18.66797,-41.66797 -41.66797,-41.66797 z M 937.5,645.83203 V 562.5 h -83.33203 c -23,0 -41.66797,18.66797 -41.66797,41.66797 0,23 18.66797,41.66406 41.66797,41.66406 z m -83.33203,-62.5 h 41.66406 V 625 h -41.66406 z m 0,0"
       id="path453"
       inkscape:connector-curvature="0" />
  </g>
</svg>
